swiss/communes/5187.svg

<svg xmlns="http://www.w3.org/2000/svg" xmlns:xlink="http://www.w3.org/1999/xlink" height="763" width="603" version="1.0"><defs><radialGradient xlink:href="#a" id="b" gradientUnits="userSpaceOnUse" gradientTransform="matrix(1.21503 0 0 1.26667 -839.192 -490.49)" cx="858.042" cy="579.933" fx="858.042" fy="579.933" r="300"/><linearGradient id="a"><stop style="stop-color:#fff;stop-opacity:.3137255" offset="0"/><stop offset=".19" style="stop-color:#fff;stop-opacity:.25098041"/><stop style="stop-color:#6b6b6b;stop-opacity:.1254902" offset=".6"/><stop style="stop-color:#000;stop-opacity:.1254902" offset="1"/></linearGradient></defs><g style="opacity:1"><path d="M1.5 1.5v458.868c0 166.311 134.314 301.132 300 301.132s300-134.821 300-301.132V1.5H1.5z" style="opacity:1;fill:#2b5df2"/></g><g style="opacity:1"><path style="fill:#fff;stroke:#000;stroke-width:3;stroke-linecap:round;stroke-linejoin:round" d="M216.183 555.047v-43.343h-24.929v14.487h-16.15v-14.487h-24.578v14.487h-15.975v63.025h15.975v14.488h24.578v-14.488h16.15v14.488h24.929V566.76h-20.481v11.712h-11.353V566.76h-11.352v-11.713h11.352v-11.711h11.353v11.711h20.481z"/><path style="fill:#fff;stroke:#000;stroke-width:3;stroke-linecap:round;stroke-linejoin:round" d="M205.649 293.475h-19.354l-51.744-53.38v-19.966c0-6.901-5.423-12.497-12.113-12.497-6.69 0-12.113 5.595-12.113 12.497v19.966l-51.744 53.38H39.228c-6.689 0-12.113 5.595-12.113 12.497 0 6.901 5.423 12.496 12.113 12.496h19.354l47.003 48.491v233.756c0 2.553 2.005 4.62 4.479 4.62h24.748c2.474 0 4.479-2.067 4.479-4.62V366.958l47.003-48.491h19.354c6.689 0 12.113-5.595 12.113-12.496.001-6.901-5.422-12.496-12.112-12.496zm-60.038 31.512c-2.822 0-5.445-1.113-7.656-3.008 1.837 2.281 2.916 4.987 2.916 7.898 0 8.102-8.252 14.669-18.433 14.669s-18.433-6.567-18.433-14.669c0-2.911 1.079-5.617 2.916-7.898-2.211 1.895-4.834 3.008-7.656 3.008-7.854 0-14.219-8.513-14.219-19.015s6.366-19.016 14.219-19.016c2.822 0 5.445 1.112 7.656 3.008-1.837-2.281-2.916-4.987-2.916-7.898 0-8.102 8.252-14.669 18.433-14.669s18.433 6.568 18.433 14.669c0 2.912-1.079 5.617-2.916 7.898 2.211-1.896 4.834-3.008 7.656-3.008 7.854 0 14.219 8.513 14.219 19.016.001 10.502-6.365 19.015-14.219 19.015z"/><path style="fill:#fff;stroke:#000;stroke-width:3;stroke-linecap:round;stroke-linejoin:round" d="M147.191 373.616c0-2.552-2.005-4.62-4.479-4.62h-40.548c-2.474 0-4.479 2.068-4.479 4.62v7.059c0 2.551 2.005 4.62 4.479 4.62h40.548c2.474 0 4.479-2.069 4.479-4.62v-7.059zM278.064 222.98s6.583 308.464 9.216 321.504c2.633 13.039 8.427 41.834 14.22 88.016 5.793-46.182 11.586-74.977 14.22-88.016 2.633-13.04 9.216-321.504 9.216-321.504h-46.872 0z"/><path d="M320.723 195.951c-5.134-13.241-2.926-54.331-2.926-77.421 0-23.09-11.504-24.721-16.297-24.721-4.793 0-16.296 1.63-16.296 24.721s2.208 64.181-2.926 77.421c-4.213 10.867-4.213 22.819-4.213 22.819h46.872c-.001 0-.001-11.952-4.214-22.819z" style="fill:#fcef3c;stroke:#000;stroke-width:3;stroke-linecap:round;stroke-linejoin:round"/><ellipse ry="17.748" rx="17.205" cy="79.451" cx="301.5" style="fill:#fcef3c;stroke:#000;stroke-width:3;stroke-linecap:round;stroke-linejoin:round"/><path d="M386.686 210.893c-3.801 0-7.065 2.344-8.527 5.705H224.841c-1.461-3.36-4.726-5.705-8.527-5.705-5.163 0-9.348 4.318-9.348 9.644 0 5.326 4.186 9.644 9.348 9.644 3.801 0 7.066-2.345 8.527-5.706h153.317c1.462 3.36 4.727 5.706 8.527 5.706 5.163 0 9.349-4.318 9.349-9.644 0-5.327-4.185-9.644-9.348-9.644z" style="fill:#fcef3c;stroke:#000;stroke-width:3;stroke-linecap:round;stroke-linejoin:round"/><path style="fill:none;stroke:#000;stroke-width:3;stroke-linecap:round;stroke-linejoin:round" d="M301.5 245.846v297.733M285.204 118.53l.001.52c7.139 2.511 18.744 6.007 32.52 7.97m-.495-16.557c-12.084-1.761-22.465-4.687-29.575-7.061m-3.078 81.373c7.43 2.649 20.171 6.539 35.296 8.482m-2.119-16.773c-13.565-1.931-25.034-5.349-32.204-7.853m.104-16.45c7.102 2.474 18.362 5.825 31.676 7.757m.12-16.471c-13.519-1.951-24.925-5.368-32.033-7.856M280.932 199.907c6.822 2.649 23.329 8.359 43.323 10.341M278.137 216.597v7.878M324.863 216.597v7.878M301.5 216.597v7.878"/><path style="fill:#fff;stroke:#000;stroke-width:3;stroke-linecap:round;stroke-linejoin:round" d="M386.817 555.047v-43.343h24.928v14.487h16.151v-14.487h24.577v14.487h15.975v63.025h-15.975v14.488h-24.577v-14.488h-16.151v14.488h-24.928V566.76h20.48v11.712h11.353V566.76h11.353v-11.713H418.65v-11.711h-11.353v11.711h-20.48z"/><path style="fill:#fff;stroke:#000;stroke-width:3;stroke-linecap:round;stroke-linejoin:round" d="M385.237 305.972c0 6.901 5.423 12.496 12.113 12.496h19.354l47.004 48.491v233.756c0 2.553 2.005 4.62 4.479 4.62h24.748c2.473 0 4.479-2.067 4.479-4.62V366.958l47.004-48.491h19.354c6.689 0 12.113-5.595 12.113-12.496 0-6.901-5.424-12.497-12.113-12.497h-19.354l-51.743-53.38v-19.966c0-6.901-5.424-12.497-12.113-12.497-6.69 0-12.113 5.595-12.113 12.497v19.966l-51.743 53.38h-19.354c-6.692.001-12.115 5.596-12.115 12.498zm57.932 0c0-10.502 6.366-19.016 14.22-19.016 2.821 0 5.444 1.112 7.656 3.008-1.837-2.281-2.916-4.987-2.916-7.898 0-8.102 8.252-14.669 18.433-14.669s18.433 6.568 18.433 14.669c0 2.912-1.079 5.617-2.916 7.898 2.212-1.896 4.834-3.008 7.656-3.008 7.854 0 14.22 8.513 14.22 19.016 0 10.502-6.366 19.015-14.22 19.015-2.822 0-5.444-1.113-7.656-3.008 1.837 2.281 2.916 4.987 2.916 7.898 0 8.102-8.252 14.669-18.433 14.669s-18.433-6.567-18.433-14.669c0-2.911 1.079-5.617 2.916-7.898-2.212 1.895-4.835 3.008-7.656 3.008-7.854 0-14.22-8.513-14.22-19.015z"/><path style="fill:#fff;stroke:#000;stroke-width:3;stroke-linecap:round;stroke-linejoin:round" d="M455.809 373.616c0-2.552 2.005-4.62 4.479-4.62h40.549c2.473 0 4.479 2.068 4.479 4.62v7.059c0 2.551-2.006 4.62-4.479 4.62h-40.549c-2.474 0-4.479-2.069-4.479-4.62v-7.059z"/></g><g style="display:inline"><path style="fill:url(#b);fill-opacity:1" d="M1.5 1.5v458.868c0 166.31 134.315 301.132 300 301.132s300-134.821 300-301.132V1.5H1.5z"/></g><g style="display:inline"><path style="fill:none;fill-opacity:1;stroke:#000;stroke-width:3;stroke-miterlimit:4;stroke-dasharray:none;stroke-opacity:1" d="M1.5 1.5v458.868c0 166.31 134.315 301.132 300 301.132s300-134.821 300-301.132V1.5H1.5z"/></g></svg>

<?xml version="1.0" encoding="UTF-8" standalone="no"?>
<svg
   xmlns:dc="http://purl.org/dc/elements/1.1/"
   xmlns:cc="http://creativecommons.org/ns#"
   xmlns:rdf="http://www.w3.org/1999/02/22-rdf-syntax-ns#"
   xmlns:svg="http://www.w3.org/2000/svg"
   xmlns="http://www.w3.org/2000/svg"
   xmlns:xlink="http://www.w3.org/1999/xlink"
   xmlns:sodipodi="http://sodipodi.sourceforge.net/DTD/sodipodi-0.dtd"
   xmlns:inkscape="http://www.inkscape.org/namespaces/inkscape"
   height="763"
   width="603"
   version="1.0"
   id="svg20"
   sodipodi:version="0.32"
   inkscape:version="0.46"
   sodipodi:docname="Gravesano-coat_of_arms.svg"
   sodipodi:docbase="C:\Documents and Settings\Steve\Bureau\Blason Villages Suisse pour Wikipédia (par Delta-9)"
   inkscape:output_extension="org.inkscape.output.svg.inkscape">
  <metadata
     id="metadata31">
    <rdf:RDF>
      <cc:Work
         rdf:about="">
        <dc:format>image/svg+xml</dc:format>
        <dc:type
           rdf:resource="http://purl.org/dc/dcmitype/StillImage" />
        <dc:date>07-AUG-2006</dc:date>
        <dc:creator>
          <cc:Agent>
            <dc:title>Jérôme BLUM (wagner51)</dc:title>
          </cc:Agent>
        </dc:creator>
        <cc:license
           rdf:resource="http://creativecommons.org/licenses/GPL/2.0/" />
        <dc:coverage />
        <dc:description>Gabarit pour le Projet:Blasons de WIkipédia</dc:description>
        <dc:subject>
          <rdf:Bag>
            <rdf:li>blason suisse modèle gabarit projet blasons</rdf:li>
          </rdf:Bag>
        </dc:subject>
        <dc:language>fr</dc:language>
        <dc:title>Gabrit d'un blason suisse</dc:title>
      </cc:Work>
      <cc:License
         rdf:about="http://creativecommons.org/licenses/GPL/2.0/">
        <cc:permits
           rdf:resource="http://web.resource.org/cc/Reproduction" />
        <cc:permits
           rdf:resource="http://web.resource.org/cc/Distribution" />
        <cc:requires
           rdf:resource="http://web.resource.org/cc/Notice" />
        <cc:permits
           rdf:resource="http://web.resource.org/cc/DerivativeWorks" />
        <cc:requires
           rdf:resource="http://web.resource.org/cc/ShareAlike" />
        <cc:requires
           rdf:resource="http://web.resource.org/cc/SourceCode" />
      </cc:License>
    </rdf:RDF>
  </metadata>
  <defs
     id="defs29"><inkscape:perspective
   sodipodi:type="inkscape:persp3d"
   inkscape:vp_x="0 : 381.5 : 1"
   inkscape:vp_y="0 : 1000 : 0"
   inkscape:vp_z="603 : 381.5 : 1"
   inkscape:persp3d-origin="301.5 : 254.33333 : 1"
   id="perspective28" />
<linearGradient
   id="linearGradient2893">
  <stop
     style="stop-color:#ffffff;stop-opacity:0.3137255;"
     offset="0"
     id="stop2895" />
  <stop
     id="stop2897"
     offset="0.19"
     style="stop-color:#ffffff;stop-opacity:0.25098041;" />
  <stop
     style="stop-color:#6b6b6b;stop-opacity:0.1254902;"
     offset="0.60000002"
     id="stop2901" />
  <stop
     style="stop-color:#000000;stop-opacity:0.1254902;"
     offset="1"
     id="stop2899" />
</linearGradient>
<linearGradient
   id="linearGradient2955">
  <stop
     style="stop-color:white;stop-opacity:0;"
     offset="0"
     id="stop2965" />
  <stop
     style="stop-color:black;stop-opacity:0.64583331;"
     offset="1"
     id="stop2959" />
</linearGradient>
<radialGradient
   inkscape:collect="always"
   xlink:href="#linearGradient2893"
   id="radialGradient3236"
   gradientUnits="userSpaceOnUse"
   gradientTransform="matrix(1.215027,1.531577e-24,1.464684e-23,1.266667,-839.1924,-490.4894)"
   cx="858.04236"
   cy="579.93323"
   fx="858.04236"
   fy="579.93323"
   r="300" />
<inkscape:perspective
   id="perspective2547"
   inkscape:persp3d-origin="306 : 264 : 1"
   inkscape:vp_z="612 : 396 : 1"
   inkscape:vp_y="0 : 1000 : 0"
   inkscape:vp_x="0 : 396 : 1"
   sodipodi:type="inkscape:persp3d" />

	
	
	

	

		
		
		
	
		
		
		
	
		
		
		
	
			
				
			
			
			
				
			
				
			
				
		
			
			
				
			
		</defs>
  <sodipodi:namedview
     inkscape:window-height="691"
     inkscape:window-width="939"
     inkscape:pageshadow="2"
     inkscape:pageopacity="0.0"
     guidetolerance="10.0"
     gridtolerance="10.0"
     objecttolerance="10.0"
     borderopacity="1.0"
     bordercolor="#666666"
     pagecolor="#ffffff"
     id="base"
     inkscape:zoom="0.46359752"
     inkscape:cx="364.062"
     inkscape:cy="344.3237"
     inkscape:window-x="20"
     inkscape:window-y="42"
     inkscape:current-layer="layer1"
     showgrid="false"
     showguides="true"
     inkscape:guide-bbox="true">
    <sodipodi:guide
       orientation="horizontal"
       position="761.5"
       id="guide1885" />
    <sodipodi:guide
       orientation="vertical"
       position="1.5"
       id="guide1887" />
    <sodipodi:guide
       orientation="horizontal"
       position="1.5"
       id="guide1889" />
    <sodipodi:guide
       orientation="vertical"
       position="601.5"
       id="guide1891" />
    <sodipodi:guide
       orientation="vertical"
       position="301.50081"
       id="guide1893" />
  </sodipodi:namedview>
  <desc
     id="desc22">Coat of Arms of Canton of Freiburg (Fribourg)</desc>
  <g
     inkscape:groupmode="layer"
     id="layer1"
     inkscape:label="Fond écu"
     style="opacity:1"
     sodipodi:insensitive="true">
    <path
       d="M 1.5,1.5 L 1.5,460.368 C 1.5,626.679 135.814,761.5 301.5,761.5 C 467.186,761.5 601.5,626.679 601.5,460.368 L 601.5,1.5 L 1.5,1.5 z"
       id="path2554"
       style="opacity:1;fill:#2b5df2" />
  </g>
  <g
     inkscape:groupmode="layer"
     id="layer2"
     inkscape:label="Meubles"
     style="opacity:1"
     sodipodi:insensitive="true">
    <polygon
       style="fill:#ffffff;stroke:#000000;stroke-width:3;stroke-linecap:round;stroke-linejoin:round"
       points="216.183,555.047 216.183,511.704 191.254,511.704 191.254,526.191 175.104,526.191 175.104,511.704 150.526,511.704 150.526,526.191 134.551,526.191 134.551,589.216 150.526,589.216 150.526,603.704 175.104,603.704 175.104,589.216 191.254,589.216 191.254,603.704 216.183,603.704 216.183,566.76 195.702,566.76 195.702,578.472 184.349,578.472 184.349,566.76 172.997,566.76 172.997,555.047 184.349,555.047 184.349,543.336 195.702,543.336 195.702,555.047 216.183,555.047 "
       id="polygon2502" />
    <path
       style="fill:#ffffff;stroke:#000000;stroke-width:3;stroke-linecap:round;stroke-linejoin:round"
       d="M 205.649,293.475 L 186.295,293.475 L 134.551,240.095 L 134.551,220.129 C 134.551,213.228 129.128,207.632 122.438,207.632 C 115.748,207.632 110.325,213.227 110.325,220.129 L 110.325,240.095 L 58.581,293.475 L 39.228,293.475 C 32.539,293.475 27.115,299.07 27.115,305.972 C 27.115,312.873 32.538,318.468 39.228,318.468 L 58.582,318.468 L 105.585,366.959 L 105.585,600.715 C 105.585,603.268 107.59,605.335 110.064,605.335 L 134.812,605.335 C 137.286,605.335 139.291,603.268 139.291,600.715 L 139.291,366.958 L 186.294,318.467 L 205.648,318.467 C 212.337,318.467 217.761,312.872 217.761,305.971 C 217.762,299.07 212.339,293.475 205.649,293.475 z M 145.611,324.987 C 142.789,324.987 140.166,323.874 137.955,321.979 C 139.792,324.26 140.871,326.966 140.871,329.877 C 140.871,337.979 132.619,344.546 122.438,344.546 C 112.257,344.546 104.005,337.979 104.005,329.877 C 104.005,326.966 105.084,324.26 106.921,321.979 C 104.71,323.874 102.087,324.987 99.265,324.987 C 91.411,324.987 85.046,316.474 85.046,305.972 C 85.046,295.47 91.412,286.956 99.265,286.956 C 102.087,286.956 104.71,288.068 106.921,289.964 C 105.084,287.683 104.005,284.977 104.005,282.066 C 104.005,273.964 112.257,267.397 122.438,267.397 C 132.619,267.397 140.871,273.965 140.871,282.066 C 140.871,284.978 139.792,287.683 137.955,289.964 C 140.166,288.068 142.789,286.956 145.611,286.956 C 153.465,286.956 159.83,295.469 159.83,305.972 C 159.831,316.474 153.465,324.987 145.611,324.987 z"
       id="path2504" />
    <path
       style="fill:#ffffff;stroke:#000000;stroke-width:3;stroke-linecap:round;stroke-linejoin:round"
       d="M 147.191,373.616 C 147.191,371.064 145.186,368.996 142.712,368.996 L 102.164,368.996 C 99.69,368.996 97.685,371.064 97.685,373.616 L 97.685,380.675 C 97.685,383.226 99.69,385.295 102.164,385.295 L 142.712,385.295 C 145.186,385.295 147.191,383.226 147.191,380.675 L 147.191,373.616 z"
       id="path2506" />
    <path
       style="fill:#ffffff;stroke:#000000;stroke-width:3;stroke-linecap:round;stroke-linejoin:round"
       d="M 278.064,222.98 C 278.064,222.98 284.647,531.444 287.28,544.484 C 289.913,557.523 295.707,586.318 301.5,632.5 C 307.293,586.318 313.086,557.523 315.72,544.484 C 318.353,531.444 324.936,222.98 324.936,222.98 L 278.064,222.98 L 278.064,222.98 z"
       id="path2510" />
    <path
       id="path2514"
       d="M 320.723,195.951 C 315.589,182.71 317.797,141.62 317.797,118.53 C 317.797,95.44 306.293,93.809 301.5,93.809 C 296.707,93.809 285.204,95.439 285.204,118.53 C 285.204,141.621 287.412,182.711 282.278,195.951 C 278.065,206.818 278.065,218.77 278.065,218.77 L 324.937,218.77 C 324.936,218.77 324.936,206.818 320.723,195.951 z"
       style="fill:#fcef3c;stroke:#000000;stroke-width:3;stroke-linecap:round;stroke-linejoin:round" />
    <ellipse
       id="ellipse2516"
       ry="17.747999"
       rx="17.205"
       cy="79.450996"
       cx="301.5"
       sodipodi:cx="301.5"
       sodipodi:cy="79.450996"
       sodipodi:rx="17.205"
       sodipodi:ry="17.747999"
       style="fill:#fcef3c;stroke:#000000;stroke-width:3;stroke-linecap:round;stroke-linejoin:round" />
    <path
       id="path2518"
       d="M 386.686,210.893 C 382.885,210.893 379.621,213.237 378.159,216.598 L 224.841,216.598 C 223.38,213.238 220.115,210.893 216.314,210.893 C 211.151,210.893 206.966,215.211 206.966,220.537 C 206.966,225.863 211.152,230.181 216.314,230.181 C 220.115,230.181 223.38,227.836 224.841,224.475 L 378.158,224.475 C 379.62,227.835 382.885,230.181 386.685,230.181 C 391.848,230.181 396.034,225.863 396.034,220.537 C 396.034,215.21 391.849,210.893 386.686,210.893 z"
       style="fill:#fcef3c;stroke:#000000;stroke-width:3;stroke-linecap:round;stroke-linejoin:round" />
    <line
       id="line2522"
       y2="543.57898"
       x2="301.5"
       y1="245.84599"
       x1="301.5"
       style="fill:none;stroke:#000000;stroke-width:3;stroke-linecap:round;stroke-linejoin:round" />
    <path
       id="path2524"
       d="M 285.204,118.53 C 285.204,118.699 285.205,118.878 285.205,119.05 C 292.344,121.561 303.949,125.057 317.725,127.02 M 317.23,110.463 C 305.146,108.702 294.765,105.776 287.655,103.402 M 284.577,184.775 C 292.007,187.424 304.748,191.314 319.873,193.257 M 317.754,176.484 C 304.189,174.553 292.72,171.135 285.55,168.631 M 285.654,152.181 C 292.756,154.655 304.016,158.006 317.33,159.938 M 317.45,143.467 C 303.931,141.516 292.525,138.099 285.417,135.611"
       style="fill:none;stroke:#000000;stroke-width:3;stroke-linecap:round;stroke-linejoin:round" />
    <path
       id="path2526"
       d="M 280.932,199.907 C 287.754,202.556 304.261,208.266 324.255,210.248"
       style="fill:none;stroke:#000000;stroke-width:3;stroke-linecap:round;stroke-linejoin:round" />
    <line
       id="line2528"
       y2="224.47501"
       x2="278.13699"
       y1="216.597"
       x1="278.13699"
       style="fill:none;stroke:#000000;stroke-width:3;stroke-linecap:round;stroke-linejoin:round" />
    <line
       id="line2530"
       y2="224.47501"
       x2="324.86301"
       y1="216.597"
       x1="324.86301"
       style="fill:none;stroke:#000000;stroke-width:3;stroke-linecap:round;stroke-linejoin:round" />
    <line
       id="line2532"
       y2="224.47501"
       x2="301.5"
       y1="216.597"
       x1="301.5"
       style="fill:none;stroke:#000000;stroke-width:3;stroke-linecap:round;stroke-linejoin:round" />
    <polygon
       style="fill:#ffffff;stroke:#000000;stroke-width:3;stroke-linecap:round;stroke-linejoin:round"
       points="386.817,555.047 386.817,511.704 411.745,511.704 411.745,526.191 427.896,526.191 427.896,511.704 452.473,511.704 452.473,526.191 468.448,526.191 468.448,589.216 452.473,589.216 452.473,603.704 427.896,603.704 427.896,589.216 411.745,589.216 411.745,603.704 386.817,603.704 386.817,566.76 407.297,566.76 407.297,578.472 418.65,578.472 418.65,566.76 430.003,566.76 430.003,555.047 418.65,555.047 418.65,543.336 407.297,543.336 407.297,555.047 386.817,555.047 "
       id="polygon2536" />
    <path
       style="fill:#ffffff;stroke:#000000;stroke-width:3;stroke-linecap:round;stroke-linejoin:round"
       d="M 385.237,305.972 C 385.237,312.873 390.66,318.468 397.35,318.468 L 416.704,318.468 L 463.708,366.959 L 463.708,600.715 C 463.708,603.268 465.713,605.335 468.187,605.335 L 492.935,605.335 C 495.408,605.335 497.414,603.268 497.414,600.715 L 497.414,366.958 L 544.418,318.467 L 563.772,318.467 C 570.461,318.467 575.885,312.872 575.885,305.971 C 575.885,299.07 570.461,293.474 563.772,293.474 L 544.418,293.474 L 492.675,240.094 L 492.675,220.128 C 492.675,213.227 487.251,207.631 480.562,207.631 C 473.872,207.631 468.449,213.226 468.449,220.128 L 468.449,240.094 L 416.706,293.474 L 397.352,293.474 C 390.66,293.475 385.237,299.07 385.237,305.972 z M 443.169,305.972 C 443.169,295.47 449.535,286.956 457.389,286.956 C 460.21,286.956 462.833,288.068 465.045,289.964 C 463.208,287.683 462.129,284.977 462.129,282.066 C 462.129,273.964 470.381,267.397 480.562,267.397 C 490.743,267.397 498.995,273.965 498.995,282.066 C 498.995,284.978 497.916,287.683 496.079,289.964 C 498.291,288.068 500.913,286.956 503.735,286.956 C 511.589,286.956 517.955,295.469 517.955,305.972 C 517.955,316.474 511.589,324.987 503.735,324.987 C 500.913,324.987 498.291,323.874 496.079,321.979 C 497.916,324.26 498.995,326.966 498.995,329.877 C 498.995,337.979 490.743,344.546 480.562,344.546 C 470.381,344.546 462.129,337.979 462.129,329.877 C 462.129,326.966 463.208,324.26 465.045,321.979 C 462.833,323.874 460.21,324.987 457.389,324.987 C 449.535,324.987 443.169,316.474 443.169,305.972 z"
       id="path2538" />
    <path
       style="fill:#ffffff;stroke:#000000;stroke-width:3;stroke-linecap:round;stroke-linejoin:round"
       d="M 455.809,373.616 C 455.809,371.064 457.814,368.996 460.288,368.996 L 500.837,368.996 C 503.31,368.996 505.316,371.064 505.316,373.616 L 505.316,380.675 C 505.316,383.226 503.31,385.295 500.837,385.295 L 460.288,385.295 C 457.814,385.295 455.809,383.226 455.809,380.675 L 455.809,373.616 z"
       id="path2540" />
  </g>
  <g
     inkscape:groupmode="layer"
     id="layer3"
     inkscape:label="Reflet final"
     style="display:inline"
     sodipodi:insensitive="true">
    <path
       style="fill:url(#radialGradient3236);fill-opacity:1"
       d="M 1.5,1.5 L 1.5,460.3679 C 1.5,626.67854 135.81454,761.5 301.49993,761.5 C 467.1854,761.5 601.5,626.67854 601.5,460.3679 L 601.5,1.5 L 1.5,1.5 z "
       id="path2346" />
  </g>
  <g
     inkscape:groupmode="layer"
     id="layer4"
     inkscape:label="Contour final"
     style="display:inline"
     sodipodi:insensitive="true">
    <path
       style="fill:none;fill-opacity:1;stroke:#000000;stroke-width:3;stroke-miterlimit:4;stroke-dasharray:none;stroke-opacity:1"
       d="M 1.5,1.5 L 1.5,460.36794 C 1.5,626.67854 135.81454,761.5 301.49993,761.5 C 467.1854,761.5 601.5,626.67854 601.5,460.36794 L 601.5,1.5 L 1.5,1.5 z "
       id="path3239" />
  </g>
</svg>
